X:1
T:60 Lessons for 2 Guitars, Op.168 - Joseph Küffner (1776 - 1856)
T:Leçon No.57
T:60 Lessons for 2 Guitars, Op.168 "à l'usage des commençants"
T:Joseph Küffner (1776 - 1856)
%%score { ( 1 2 ) ( 3 4 ) }
L:1/8
Q:1/4=80
M:4/4
K:C
V:1 treble-8 nm="Classical Guitar"
V:2 treble-8 
V:3 treble-8 nm="Guitare classique"
V:4 treble-8 
V:1
"^Marche""_" !arpeggio![Gce]2 e>e e(f/e/) .d/.c/.B/.A/ | G2 [FGB]2 [EGc]2 z2 | f2 e>d e2 d>c | %3
 [Bd]2 !arpeggio![DAc^f]2 [GBg]gf=f | !arpeggio![Gce]2 e>e e(f/e/) .d/.c/.B/.A/ | %5
 [^GB]2 e>d [Ac]>AB>c | [Bd]2 [=GB]>[GB] [Ac]2 !arpeggio![DAc^f]2 | %7
 !arpeggio![G,GBg]2 [GBg]>[GBg] [GBg]2 z2 ::"_" G2 df fe.d.c | [FGB]2 [FGB]>[FGB] [EGc]2 [CGce]2 | %10
 G2 df (fe).d.c |"_cresc." g(^fg)(f g).f.=f.d |"_" !arpeggio![Gce]2 e>e e(f/e/) .d/.c/.B/.A/ | %13
 G2 [GB]2 [Gc]>cd>e | f>fe>d [Gc]2 [GB]2 | !arpeggio![CEGc]2 z{/^f} g d2 z{/f} g | %16
 e2 z ^c d=f e/d/=c/B/ | c2 z{/^f} g d2 z{/f} g | e2 z ^c d=f e/d/=c/B/ | c>eG>B c>eG>B | %20
 [Ec]2 [Ge]2 [Ec]2 z2 :| %21
V:2
 C4 z4 | x8 | x8 | x4 G,2 z2 | C4 z4 | E,2 ^G2 A,3/2 z/ z2 | x8 | x8 :: x8 | x8 | x8 | x8 | C4 z4 | %13
 z2 F2 E3/2 z/ z2 | A3/2 z/ z2 E2 D2 | x8 | x8 | x8 | x8 | x8 | x8 :| %21
V:3
"_" z/ E/G/c/ z/ E/G/c/ z/ F/A/d/ z/ F/A/d/ | z/ E/G/c/ z/ D/G/B/ z/ E/G/E/ c/E/G/E/ | %2
 z/ G/d/G/ z/ G/d/G/ z/ G/c/G/ z/ G/c/G/ | z/ G/B/G/ z/ A/c/A/ [GB]G,/G/ A,/G/B,/G/ | %4
 z/ G/c/G/ e/G/c/G/ z/ A/c/A/ e/A/c/A/ | z/ ^G/B/G/ z/ G/B/G/ z/ A/c/A/ z/ E/A/E/ | %6
 z/ =G/B/G/ z/ G/B/G/ z/ A/c/A/ z/ A/c/A/ | z/ G/B/g/ G/B/D/G/ G,2 z2 :: %8
"_" z [FGB][FGB][FGB] z [EGc][EGc][EGc] | z .G.D.F .F.E.D.C | %10
 z [FGB][FGB][FGB] z [EGc][EGc][EGc] | %11
"_cresc." !arpeggio![G,DGB]2 !arpeggio![G,EGc]2 !arpeggio![G,FGd]2 z2 | %12
"_" z/ E/G/c/ z/ E/G/c/ z/ F/A/d/ z/ F/A/d/ | z/ E/G/c/ z/ D/G/B/ C/c/C/c/ B,/B/_B,/_B/ | %14
 z/ A/c/f/ z/ F/A/d/ z/ E/G/c/ z/ F/G/B/ | z/ E/G/c/ z/ E/G/c/ z/ D/G/B/ z/ D/G/B/ | %16
 z/ E/G/c/ z/ E/A/^c/ z/ F/A/d/ z/ D/G/B/ | z/ E/G/c/ z/ E/G/c/ z/ D/G/B/ z/ D/G/B/ | %18
 z/ E/G/c/ z/ E/A/^c/ z/ F/A/d/ z/ D/G/B/ | %19
 !arpeggio![CEGc]2 !arpeggio![G,DGB]2 !arpeggio![CEGc]2 !arpeggio![G,DGB]2 | %20
 z E/G/ c/G/E/G/ C2 z2 :| %21
V:4
 C2 E,2 F,2 F,2 | G,2 G,2 C4 | B,2 B,2 C2 E2 | D2 D2 G,G, A,B, | C4 A,4 | E,2 E2 A,2 C2 | %6
 D2 D2 D2 D2 | G,4 x4 :: G,4 C4 | G,2 z2 z4 | G,4 C4 | x8 | C2 E,2 F,2 F,2 | G,2 G,2 CC B,_B, | %14
 A,2 F,2 G,2 G,2 | C2 C2 G,2 G,2 | C2 A,2 F,2 G,2 | C2 C2 G,2 G,2 | C2 A,2 F,2 G,2 | x8 | C4 x4 :| %21

